apps/scalable/nvidia-settings.svg

<?xml version="1.0" encoding="UTF-8" standalone="no"?>
<!-- Created using Karbon, part of Calligra: http://www.calligra.org/karbon -->

<svg
   xmlns:dc="http://purl.org/dc/elements/1.1/"
   xmlns:cc="http://creativecommons.org/ns#"
   xmlns:rdf="http://www.w3.org/1999/02/22-rdf-syntax-ns#"
   xmlns:svg="http://www.w3.org/2000/svg"
   xmlns="http://www.w3.org/2000/svg"
   xmlns:sodipodi="http://sodipodi.sourceforge.net/DTD/sodipodi-0.dtd"
   xmlns:inkscape="http://www.inkscape.org/namespaces/inkscape"
   width="38.4pt"
   height="38.4pt"
   id="svg2"
   version="1.1"
   inkscape:version="0.48.4 r9939"
   sodipodi:docname="nvidia-settings.svg">
  <metadata
     id="metadata10">
    <rdf:RDF>
      <cc:Work
         rdf:about="">
        <dc:format>image/svg+xml</dc:format>
        <dc:type
           rdf:resource="http://purl.org/dc/dcmitype/StillImage" />
      </cc:Work>
    </rdf:RDF>
  </metadata>
  <sodipodi:namedview
     pagecolor="#ffffff"
     bordercolor="#666666"
     borderopacity="1"
     objecttolerance="10"
     gridtolerance="10"
     guidetolerance="10"
     inkscape:pageopacity="0"
     inkscape:pageshadow="2"
     inkscape:window-width="640"
     inkscape:window-height="480"
     id="namedview8"
     showgrid="false"
     inkscape:zoom="4.9166667"
     inkscape:cx="24"
     inkscape:cy="24"
     inkscape:window-x="354"
     inkscape:window-y="93"
     inkscape:window-maximized="0"
     inkscape:current-layer="svg2" />
  <defs
     id="defs4" />
  <g
     id="layer1">
    <path
       id="path21"
       transform="translate(4.00394,6.41539)"
       d="m 4.24762,15.087 c 0,0 3.75892,-7.06517 11.26428,-7.79588 l 0,-2.56343 C 7.19877,5.57819 0,14.5476 0,14.5476 c 0,0 4.07724,15.0153 15.5119,16.3902 l 0,-2.7245 C 7.12043,26.8683 4.24762,15.087 4.24762,15.087 z m 11.26428,7.7077 0,2.4952 C 9.16993,23.8495 7.40956,15.4511 7.40956,15.4511 c 0,0 3.04504,-4.2973 8.10234,-4.9939 l 0,2.7379 c -0.0039,0 -0.0066,-0.0015 -0.0097,-0.0015 -2.6544,-0.4058 -4.7279,2.7528 -4.7279,2.7528 0,0 1.162,5.318 4.7376,6.8483 m 0,-22.7947 0,4.72769 c 0.244,-0.02405 0.488,-0.04405 0.7334,-0.05469 9.4511,-0.40578 15.609,9.8746 15.609,9.8746 0,0 -7.0726,10.9559 -14.4411,10.9559 -0.6753,0 -1.3075,-0.0798 -1.9013,-0.2136 l 0,2.9234 c 0.5077,0.0822 1.0342,0.1304 1.5836,0.1304 6.8569,0 11.8157,-4.461 16.6171,-9.7409 0.7961,0.8122 4.0553,2.788 4.7253,3.6532 -4.5654,4.8692 -15.2052,8.7943 -21.2373,8.7943 -0.5815,0 -1.1399,-0.0449 -1.6887,-0.1125 l 0,4.1078 24.4921,0 0,-35.0456 z m 0,10.4572 0,-3.16608 c 0.2415,-0.02149 0.4849,-0.03809 0.7334,-0.04809 6.7963,-0.27194 11.2553,7.44007 11.2553,7.44007 0,0 -4.816,8.5206 -9.9797,8.5206 -0.7431,0 -1.4094,-0.1521 -2.009,-0.409 l 0,-9.5996 c 2.6458,0.4073 3.1783,1.8961 4.7689,5.2741 l 3.5378,-3.8004 c 0,0 -2.5826,-4.3146 -6.9359,-4.3146 -0.4735,0 -0.9264,0.0423 -1.3708,0.103"
       inkscape:connector-curvature="0"
       style="fill:#2ecc71" />
  </g>
</svg>

<?xml version="1.0" standalone="no"?>
<!DOCTYPE svg PUBLIC "-//W3C//DTD SVG 20010904//EN" "http://www.w3.org/TR/2001/REC-SVG-20010904/DTD/svg10.dtd">
<!-- Created using Karbon, part of Calligra: http://www.calligra.org/karbon -->
<svg xmlns="http://www.w3.org/2000/svg" xmlns:xlink="http://www.w3.org/1999/xlink" width="38.4pt" height="38.4pt">
<defs/>
<g id="layer1">
  <path id="path21" transform="translate(4.00394, 6.41539)" fill="#8bc941" d="M4.24762 15.087C4.24762 15.087 8.00654 8.02183 15.5119 7.29112L15.5119 4.72769C7.19877 5.57819 0 14.5476 0 14.5476C0 14.5476 4.07724 29.5629 15.5119 30.9378L15.5119 28.2133C7.12043 26.8683 4.24762 15.087 4.24762 15.087ZM15.5119 22.7947L15.5119 25.2899C9.16993 23.8495 7.40956 15.4511 7.40956 15.4511C7.40956 15.4511 10.4546 11.1538 15.5119 10.4572L15.5119 13.1951C15.508 13.1951 15.5053 13.1936 15.5022 13.1936C12.8478 12.7878 10.7743 15.9464 10.7743 15.9464C10.7743 15.9464 11.9363 21.2644 15.5119 22.7947M15.5119 0L15.5119 4.72769C15.7559 4.70364 15.9999 4.68364 16.2453 4.673C25.6964 4.26722 31.8543 14.5476 31.8543 14.5476C31.8543 14.5476 24.7817 25.5035 17.4132 25.5035C16.7379 25.5035 16.1057 25.4237 15.5119 25.2899L15.5119 28.2133C16.0196 28.2955 16.5461 28.3437 17.0955 28.3437C23.9524 28.3437 28.9112 23.8827 33.7126 18.6028C34.5087 19.415 37.7679 21.3908 38.4379 22.256C33.8725 27.1252 23.2327 31.0503 17.2006 31.0503C16.6191 31.0503 16.0607 31.0054 15.5119 30.9378L15.5119 35.0456L40.004 35.0456L40.004 0ZM15.5119 10.4572L15.5119 7.29112C15.7534 7.26963 15.9968 7.25303 16.2453 7.24303C23.0416 6.97109 27.5006 14.6831 27.5006 14.6831C27.5006 14.6831 22.6846 23.2037 17.5209 23.2037C16.7778 23.2037 16.1115 23.0516 15.5119 22.7947L15.5119 13.1951C18.1577 13.6024 18.6902 15.0912 20.2808 18.4692L23.8186 14.6688C23.8186 14.6688 21.236 10.3542 16.8827 10.3542C16.4092 10.3542 15.9563 10.3965 15.5119 10.4572"/>
 </g>
</svg>
